icon-themes/sifr_svg/cmd/sc_deleterows.svg

<svg viewBox="0 0 16 16" xmlns="http://www.w3.org/2000/svg"><g fill="#555753"><path d="m2 5v6h12v-6z" opacity=".35"/><path d="m1 1v14h14v-14zm1 1h3v2h-3zm4 0h4v2h-4zm5 0h3v2h-3zm-9 3h12v6h-12zm3 2v2h6v-2zm-3 5h3v2h-3zm4 0h4v2h-4zm5 0h3v2h-3z"/></g></svg>

<svg xmlns="http://www.w3.org/2000/svg" viewBox="0 0 16 16">
  <path
     style="opacity:0.35;fill:#555753"
     d="M 2 5 L 2 11 L 14 11 L 14 5 L 2 5 z "
     />
  <path
     style="fill:#555753"
     d="M 1 1 L 1 15 L 15 15 L 15 1 L 1 1 z M 2 2 L 5 2 L 5 4 L 2 4 L 2 2 z M 6 2 L 10 2 L 10 4 L 6 4 L 6 2 z M 11 2 L 14 2 L 14 4 L 11 4 L 11 2 z M 2 5 L 14 5 L 14 11 L 2 11 L 2 5 z M 5 7 L 5 9 L 11 9 L 11 7 L 5 7 z M 2 12 L 5 12 L 5 14 L 2 14 L 2 12 z M 6 12 L 10 12 L 10 14 L 6 14 L 6 12 z M 11 12 L 14 12 L 14 14 L 11 14 L 11 12 z "
     />
</svg>
